svg/fluentui-system-icons/ic_fluent_briefcase_medical_20_regular.svg

<svg width="20" height="20" viewBox="0 0 20 20" fill="none" xmlns="http://www.w3.org/2000/svg">
<path d="M8.75 3H11.25C11.6642 3 12 3.33579 12 3.75V5H8V3.75C8 3.33579 8.33579 3 8.75 3ZM7 3.75V5H5.5C4.11929 5 3 6.11929 3 7.5V13.5C3 14.8807 4.11929 16 5.5 16H14.5C15.8807 16 17 14.8807 17 13.5V7.5C17 6.11929 15.8807 5 14.5 5H13V3.75C13 2.7835 12.2165 2 11.25 2H8.75C7.7835 2 7 2.7835 7 3.75ZM14.5 6C15.3284 6 16 6.67157 16 7.5V13.5C16 14.3284 15.3284 15 14.5 15H5.5C4.67157 15 4 14.3284 4 13.5V7.5C4 6.67157 4.67157 6 5.5 6H14.5ZM10 7.5C10.2761 7.5 10.5 7.72386 10.5 8V10H12.5C12.7761 10 13 10.2239 13 10.5C13 10.7761 12.7761 11 12.5 11H10.5V13C10.5 13.2761 10.2761 13.5 10 13.5C9.72386 13.5 9.5 13.2761 9.5 13V11H7.5C7.22386 11 7 10.7761 7 10.5C7 10.2239 7.22386 10 7.5 10H9.5V8C9.5 7.72386 9.72386 7.5 10 7.5Z" fill="#212121"/>
</svg>

<svg xmlns="http://www.w3.org/2000/svg" width="20" height="20"><path d="M8.75 3h2.5a.75.75 0 0 1 .75.75V5H8V3.75A.75.75 0 0 1 8.75 3ZM7 3.75V5H5.5A2.5 2.5 0 0 0 3 7.5v6A2.5 2.5 0 0 0 5.5 16h9a2.5 2.5 0 0 0 2.5-2.5v-6A2.5 2.5 0 0 0 14.5 5H13V3.75A1.75 1.75 0 0 0 11.25 2h-2.5A1.75 1.75 0 0 0 7 3.75ZM14.5 6A1.5 1.5 0 0 1 16 7.5v6a1.5 1.5 0 0 1-1.5 1.5h-9A1.5 1.5 0 0 1 4 13.5v-6A1.5 1.5 0 0 1 5.5 6h9ZM10 7.5a.5.5 0 0 1 .5.5v2h2a.5.5 0 0 1 0 1h-2v2a.5.5 0 0 1-1 0v-2h-2a.5.5 0 0 1 0-1h2V8a.5.5 0 0 1 .5-.5Z"/></svg>
